!!!!SEGMENT: pl-kk--kk-i-201--001_anonim--jesu-redemptor-omnium.krn
!!!cenid: 16xx:755
!!!COM: Anonim
!!!COM-rismID: pe30004985
!!!CDT:
!!!CNT:
!!!OTL: Jesu Redemptor omnium
!!!PDT:
!!!AGN: Sacred
!!!YEC: Copyright 2022 Narodowy Instytut Fryderyka Chopina (https://polishscores.org)
!!!YEM: License CC-BY-4.0 (https://creativecommons.org/licenses/by/4.0)
!!!SMS-siglum: PL-Kk
!!!SMS-shelfmark: Kk.I.201
!!!SMS-shelfwork: 001 W
!!!SMS-variant:
!!!SMS-altvar:
!!!NIFC-rismSourceID: 1001151123
!!!NIFC-rismChildID: 1001143741
!!!NIFC-islandoraID: pl-kk:21943
!!!URL-pdf-islandora: https://repozytorium.nifc.pl/islandora/object/pl-kk%3A21943/datastream/PDF/view
!!!URL-scan: https://polish.musicsources.pl/pl/lokalizacje/galeria/rekopisy/7109 @EN{Scan on Polish Music Sources Website} @PL{Skany w portalu Dziedzictwo Muzyki Polskiej w otwartym dostępie}
!!!IIIF:
!!!ONB-nifc: UWAGA: utwory w zbiorze: 1. Jesu Redemptor omnium, 2. Jesu corona celsior, 3. Virginis protes, 4. Virginis partum canimus, 5. Fortem virili pectore
!!!AIN: 1 empty
!!!key:
**kern	**text	**text	**text	**text	**text
*staff1	*	*	*	*	*
*Iempty	*	*	*	*	*
*I"Baſso Ripieno.	*	*	*	*	*
*I'B	*	*	*	*	*
*clefF4	*	*	*	*	*
*k[b-]	*	*	*	*	*
*F:	*	*	*	*	*
*M3/2	*	*	*	*	*
=1	=1	=1	=1	=1	=1
*2\right	*	*	*	*	*
!LO:TX:a:t=De Confeſsore Pontifice.	!	!	!	!	!
!LO:TX:a:t=P:problem=znaki BB- B-	!	!	!	!	!
2F\	1.IE-	2.Tu-	3.Qui	4.Hu-	5.Sit
2D\	-SU	-i	ri-	-jus	X-
2AA/	Re-	Sa-	-te	be-	-te
=2	=2	=2	=2	=2	=2
2.BB-/	-dem-	-cri	mun-	-ni-	Rex
4C/	.	.	.	.	.
2D\	-ptor	qua	-di	-gnus	pi-
=3	=3	=3	=3	=3	=3
2AA/	o-	No-	gau-	an-	-jſ-
2.C/	.	.	.	.	.
4C/	-mni-	-mi-	-di-	-nu-	-si-
=4-	=4	=4	=4	=4	=4
1.F	-um	-nis	-a	-e	-me
=5	=5	=5	=5	=5	=5
2F\	per-	Con-	Lu-	no-	Ti-
2D\	-pes	-feſ-	-xus	-bis	-bi
2C/	Co-	-sor	ca-	se-	Pa-
=6	=6	=6	=6	=6	=6
2.G\	-ro-	al-	-du-	-qui	-tri-
4F\	.	.	.	.	.
2En\	-na	-mus	-ca	veſ-	-que
=7	=7	=7	=7	=7	=7
2F\	Præ-	cla-	reſ-	-ti-	glo-
2.G\	.	.	.	.	.
4GG/	-su-	-ru-	-pu-	-gi-	-ri-
=8-	=8	=8	=8	=8	=8
1.C	-lum	-it	-ens	-a	-a
=9||:	=9||	=9||	=9||	=9||	=9||
2C/	In	Hu-	Ae-	Cu-	Cum
2D\	hac	-jus	-ter-	-jus	Spi-
2En\	di-	ce-	-ni-	pre-	-ri-
=10	=10	=10	=10	=10	=10
1F	-e	-le-	-ta-	-ca-	-tu
2BB-/	cle-	-brat	-tis	-tu	Pa-
=11	=11	=11	=11	=11	=11
2.C/	-men-	an-	prae-	Ser-	-ra-
4C/	-ti-	-nu-	-mi-	-vu-	-cli-
2C/	-(us)	-a	-o	-lis	-to
!LO:LB:g=original	!	!	!	!	!
=12	=12	=12	=12	=12	=12
2AA/	In-	de-	po-	di-	nunc
2BB-/	-dul-	-vo-	-ti-	-mit-	et
2GG/	-ge-	-ta	-tur	-te	per
=13	=13	=13	=13	=13	=13
2.D\	-as	plebs	in-	no-	om-
4E\	.	.	.	.	.
*2\left	*	*	*	*	*
2F\	pre-	So-	-ter	-xam	-ne
=14	=14	=14	=14	=14	=14
(4AA/	-can-	-le-	an-	Cri-	sae-
4BB-/)	.	.	.	.	.
2.C/	.	.	.	.	.
4C/	-ti-	-mni-	-ge-	-mi-	-cu-
=15	=15	=15	=15	=15	=15
1.F	-bus.	-a.	-los.	-nis.	-lum.
==	==	==	==	==	==
*-	*-	*-	*-	*-	*-
!!!ENC: Marta Lawrence
!!!END: 2021-02-18
!!!ENC: Andrzej Borzym
!!!END: 2021-02-11
